www/assets/images/test_icons/android.svg

<svg fill="none" height="32" viewBox="0 0 32 32" width="32" xmlns="http://www.w3.org/2000/svg"><g fill="#87c527"><path clip-rule="evenodd" d="m12.5915 3.88444c1.0087-.56337 2.1711-.88444 3.4085-.88444s2.3998.32107 3.4085.88444l.7379-.73799c.1953-.19527.5119-.19527.7072 0 .1952.19526.1952.51184 0 .7071l-.5924.5924c1.6654 1.27963 2.7388 3.29148 2.7388 5.55405h-14c0-2.26257 1.0734-4.27442 2.7388-5.55405l-.5924-.5924c-.1952-.19526-.1952-.51184 0-.7071.1953-.19527.5119-.19527.7072 0zm1.4085 3.11556c0 .55228-.4477 1-1 1s-1-.44772-1-1 .4477-1 1-1 1 .44772 1 1zm5 1c.5523 0 1-.44772 1-1s-.4477-1-1-1-1 .44772-1 1 .4477 1 1 1z" fill-rule="evenodd"/><path d="m5 12.5c0-.8284.67157-1.5 1.5-1.5s1.5.6716 1.5 1.5v6c0 .8284-.67157 1.5-1.5 1.5s-1.5-.6716-1.5-1.5z"/><path d="m12 24v3.5c0 .8284.6716 1.5 1.5 1.5s1.5-.6716 1.5-1.5v-3.5h2v3.5c0 .8284.6716 1.5 1.5 1.5s1.5-.6716 1.5-1.5v-3.5h1c1.1046 0 2-.8954 2-2v-11h-14v11c0 1.1046.89543 2 2 2z"/><path d="m24 12.5c0-.8284.6716-1.5 1.5-1.5s1.5.6716 1.5 1.5v6c0 .8284-.6716 1.5-1.5 1.5s-1.5-.6716-1.5-1.5z"/></g></svg>

<svg width="32" height="32" viewBox="0 0 32 32" fill="none" xmlns="http://www.w3.org/2000/svg">
<path fill-rule="evenodd" clip-rule="evenodd" d="M12.5915 3.88444C13.6002 3.32107 14.7626 3 16 3C17.2374 3 18.3998 3.32107 19.4085 3.88444L20.1464 3.14645C20.3417 2.95118 20.6583 2.95118 20.8536 3.14645C21.0488 3.34171 21.0488 3.65829 20.8536 3.85355L20.2612 4.44595C21.9266 5.72558 23 7.73743 23 10H9C9 7.73743 10.0734 5.72558 11.7388 4.44595L11.1464 3.85355C10.9512 3.65829 10.9512 3.34171 11.1464 3.14645C11.3417 2.95118 11.6583 2.95118 11.8536 3.14645L12.5915 3.88444ZM14 7C14 7.55228 13.5523 8 13 8C12.4477 8 12 7.55228 12 7C12 6.44772 12.4477 6 13 6C13.5523 6 14 6.44772 14 7ZM19 8C19.5523 8 20 7.55228 20 7C20 6.44772 19.5523 6 19 6C18.4477 6 18 6.44772 18 7C18 7.55228 18.4477 8 19 8Z" fill="#87C527"/>
<path d="M5 12.5C5 11.6716 5.67157 11 6.5 11C7.32843 11 8 11.6716 8 12.5V18.5C8 19.3284 7.32843 20 6.5 20C5.67157 20 5 19.3284 5 18.5V12.5Z" fill="#87C527"/>
<path d="M12 24V27.5C12 28.3284 12.6716 29 13.5 29C14.3284 29 15 28.3284 15 27.5V24H17V27.5C17 28.3284 17.6716 29 18.5 29C19.3284 29 20 28.3284 20 27.5V24H21C22.1046 24 23 23.1046 23 22V11H9V22C9 23.1046 9.89543 24 11 24H12Z" fill="#87C527"/>
<path d="M24 12.5C24 11.6716 24.6716 11 25.5 11C26.3284 11 27 11.6716 27 12.5V18.5C27 19.3284 26.3284 20 25.5 20C24.6716 20 24 19.3284 24 18.5V12.5Z" fill="#87C527"/>
</svg>
